plus.svg

<svg width="13" height="14" viewBox="0 0 13 14" fill="none" xmlns="http://www.w3.org/2000/svg">
<path d="M7.25 1.25V6.25H12.25C12.6562 6.25 13 6.59375 13 7C13 7.4375 12.6562 7.75 12.25 7.75H7.25V12.75C7.25 13.1875 6.90625 13.5 6.5 13.5C6.0625 13.5 5.75 13.1875 5.75 12.75V7.75H0.75C0.3125 7.75 0 7.4375 0 7C0 6.59375 0.3125 6.25 0.75 6.25H5.75V1.25C5.75 0.84375 6.0625 0.5 6.5 0.5C6.90625 0.5 7.25 0.84375 7.25 1.25Z" fill="black"/>
</svg>

<svg xmlns="http://www.w3.org/2000/svg" width="13" height="14" fill="none"><path fill="#000" d="M7.25 1.25v5h5A.76.76 0 0 1 13 7a.74.74 0 0 1-.75.75h-5v5a.74.74 0 0 1-.75.75.72.72 0 0 1-.75-.75v-5h-5A.72.72 0 0 1 0 7a.74.74 0 0 1 .75-.75h5v-5A.74.74 0 0 1 6.5.5a.76.76 0 0 1 .75.75"/></svg>
